!!!COM:	Martini, Johannes
!!!CDT:	~1440///-~1497//
!!!OTL:	Ad Dominum cum tribularer
!!!AGN:	Motet
!!!SCT:	Mar2001
!!!SCA:	Mar2001
!!!voices:	2
**kern	**kern
*staff2	*staff1
*Ivox	*Ivox
*I"Tenor	*I"Superius
*I'T	*I'S
*clefGv2	*clefG2
*k[]	*k[]
*M2/1	*M2/1
*met(C)	*met(C)
*>[A,B,C,D,E,F,G,H]	*>[A,B,C,D,E,F,G,H]
*>A	*>A
!!section: Et exaudivit me
!!!OMD: Et exaudivit me
=1-	=1-
!!LO:TX:Z=8:t=Choir 1
1A	1a
2c\	2a/
2B\	2g/
=2	=2
2G/	2e/
2A/	2f/
2B\	2g/
[2c\	[2a/
=3	=3
2c\]	2a/]
2A/	1f
1G	.
.	2e/
=4	=4
0Fl	0fl
=5||	=5||
*>B	*>B
!!section: Domine, libera
!!!OMD: Domine, libera
!!LO:TX:Z=8:t=Choir 2
1A	1f
1B	1g
=6	=6
1c	1a
2c\	2a/
2c\	2a/
=7	=7
2A/	2a/
2A/	2a/
2c\	2a/
2c\	2a/
=8	=8
1c	1a
1A	1a
=9	=9
2B\	2g/
2c\	2a/
2d\	2b\
2c\	[2cc\
=10	=10
1A	2cc\]
.	1a
1B	.
.	2g#i/
=11	=11
1A	1a
1r	1r
=12	=12
1c	1a
2c\	2a/
2c\	2a/
=13	=13
2A/	2f/
2.B-i\	2.g/
4A/	4f/
2F/	[2f/
=14	=14
1G	2f/]
.	2e/
1Fl	1fl
=15||	=15||
*>C	*>C
!!LO:TX:Z=8:t=Choir 1
!!section: Quid deturtibi
!!!OMD: Quid deturtibi
1A	1a
2c\	2a/
2c\	2a/
=16	=16
1c	1a
1c	1a
=17	=17
1A	2a/
.	2a/
2c\	2a/
2B\	2g/
=18	=18
2c\	2a/
1d	1b-i
2c\	[2a/
=19	=19
1B-i	2a/]
.	2g/
1A	1a
=20	=20
1r	1r
2c\	2a/
2c\	2a/
=21	=21
2B-i\	2g/
2A/	2f/
1B-i	1g
=22	=22
1A	2a/
.	1f
1G	.
.	2e/
=23	=23
0Fl	0fl
=24||	=24||
*>D	*>D
!!section: Sagitte
!!!OMD: Sagitte
!!LO:TX:Z=8:t=Choir 2
2A/	2a/
2A/	2a/
1c	1a
=25	=25
2c\	2a/
2c\	2a/
2c\	2a/
2c\	2a/
=26	=26
1c	1a
1A	1a
=27	=27
1r	1r
2c\	2a/
2c\	2a/
=28	=28
2c\	2a/
2c\	2a/
1c	1a
=29	=29
2A/	2f/
2B\	2g/
1c	2a/
.	[2g/
=30	=30
2B-i\	2g/]
2A/	1f
1G	.
.	2e/
=31	=31
0Fl	0fl
=32||	=32||
*>E	*>E
!!LO:TX:Z=8:t=Choir 1
!!section: Heu michi
!!!OMD: Heu michi
1A	1a
2c\	2a/
2c\	2a/
=33	=33
2c\	2a/
2c\	2a/
2c\	2a/
2c\	2a/
=34	=34
1c	1a
2c\	2a/
2B\	2g/
=35	=35
2A/	2f/
2B\	2g/
2c\	2a/
[2d\	[2b-i\
=36	=36
2d\]	2b-\]
2c\	1a
1B-i	.
.	2g/
=37	=37
1A	1a
1r	1r
=38	=38
2c\	2a/
2c\	2a/
1c	1a
=39	=39
1c	1a
1A	1a
=40	=40
2c\	2a/
2c\	2a/
2c\	2a/
2c\	2a/
=41	=41
2c\	2a/
2c\	2a/
1c	1a
=42	=42
1r	1r
2c\	2a/
2c\	2a/
=43	=43
2c\	2a/
2c\	2a/
2c\	2a/
2c\	2a/
=44	=44
1c	1a
2c\	2a/
2B-i\	2g/
=45	=45
2A/	2f/
1B-i	1g
2A/	[2f/
=46	=46
1G	2f/]
.	2e/
1Fl	1fl
=47||	=47||
*>F	*>F
!!LO:TX:Z=8:t=Choir 2
!!section: Cum his qui
!!!OMD: Cum his qui
1A	1a
2c\	2a/
2c\	2a/
=48	=48
2c\	2a/
2c\	2a/
2c\	2a/
2c\	2a/
=49	=49
1c	1a
1B	1g
=50	=50
2c\	2a/
1d	1b-i
2c\	[2a/
=51	=51
1B-	2a/]
.	2g/
1A	1a
=52	=52
1r	1r
1c	1a
=53	=53
2c\	2a/
2c\	2a/
2c\	2a/
2c\	2a/
=54	=54
1c	1a
2c\	2a/
2c\	2a/
=55	=55
2A/	2f/
2B\	2g/
1c	2a/
.	[2g/
=56	=56
2B-i\	2g/]
2A/	1f
1G	.
.	2e/
=57	=57
0Fl	0fl
=58||	=58||
*>G	*>G
!!section: Gloria Patri
!!!OMD: Gloria Patri
!!LO:TX:Z=8:t=Choir 1
1c	1a
2c\	2a/
2c\	2a/
=59	=59
1c	1a
2c\	2a/
[2d\	[2b-i\
=60	=60
2d\]	2b-\]
2c\	1a
1B-i	.
.	2g/
=61	=61
1A	1a
1r	1r
=62	=62
1c	1a
2c\	2a/
2c\	2a/
=63	=63
1c	1a
2B\	2g/
2G/	2e/
=64	=64
2A/	2f/
1B-i	1g
2A/	[2f/
=65	=65
1G	2f/]
.	2e/
1Fl	1fl
=66||	=66||
*>H	*>H
!!LO:TX:Z=8:t=Choir 2
!!section: Sicut erat
!!!OMD: Sicut erat
2A/	2a/
2A/	2a/
2c\	2a/
2c\	2a/
=67	=67
2c\	2a/
2c\	2a/
2c\	2a/
2c\	2a/
=68	=68
1c	1a
1c	1a
=69	=69
2c\	2a/
2c\	2a/
1c	1a
=70	=70
1A	1a
1r	1r
=71	=71
2c\	2a/
2c\	2a/
2c\	2a/
2c\	2a/
=72	=72
1c	1a
2A/	2f/
2B\	2g/
=73	=73
1c	2a/
.	2.g/
2B-i\	.
.	4f/
2A/	[2f/
=74	=74
1G	2f/]
.	2e/
1Fl	1fl
==	==
*-	*-
!!!RDF**kern: l=long note in original notation
!!!RDF**kern: i=editorial accidental
!!!RDF**kern: V=start of tuplet marker
!!!RDF**kern: Z=end of tuplet marker
!!!ENC:	Chris Gage 12-04-2013
!!!END:	2014/10/05/
!!!EED:	Jesse Rodin
!!!EEV:	2014/10/13/
!!!ONB:	Translated from MusicXML and edited on 2014/10/13/ by Craig Sapp
!!muse2ps: C^@{COM}^i2I150v85,150Q16
